X:1
T:Solace
C:Scott Joplin
M:2/4
L:1/4
Q:1/4=76
K:C
G3/2 E/ | C2 | G3/2 E/ | D2 | G3/2 A/ | c3/2 G/ | E3/2 D/ | C2 |
G3/2 E/ | C2 | G3/2 E/ | D2 | G3/2 c/ | e3/2 d/ | c B/ A/ | G2 |]
